!!!COM: Bohuslav (Jan) Martinů
!!!OTL: [T495_Mau-22/1/1-9]
**kern	**dynam	**kern	**dynam	**kern	**dynam	**kern	**dynam
*grp:A	*grp:A	*grp:A	*grp:A	*grp:A	*grp:A	*grp:B	*grp:B
*part4	*part4	*part3	*part3	*part2	*part2	*part1	*part1
*staff4	*	*staff3	*	*staff2	*	*staff1	*
*I"Violoncello	*	*I"Viola	*	*I"Violin II	*	*I"Violin I	*
*I'Vc.	*	*I'Vla.	*	*I'Vln. II	*	*I'Vln. I	*
*clefF4	*	*clefC3	*	*clefG2	*	*clefG2	*
*k[]	*	*k[]	*	*k[]	*	*k[]	*
*C:	*	*C:	*	*C:	*	*C:	*
*M4/4	*	*M4/4	*	*M4/4	*	*M4/4	*
=1	=1	=1	=1	=1	=1	=1	=1
!LO:TX:a:t=pizz.	!	!	!	!	!	!LO:TX:t=Allegro [quarter]=120	!
4CC: 4AA-X: 4E: 4An:	pp	4r	.	1r	[	1ryy	.
!	!	!LO:TX:a:t=col legno poco marcato	!	!	!	!	!
4r	.	8F'L 8B-X	pp	.	.	.	.
.	.	8F'J 8B-	.	.	.	.	.
4CC: 4AA-: 4E: 4A:	.	8r'	.	.	.	.	.
.	.	8E' 8A	.	.	.	.	.
4r	.	8r'	.	.	.	.	.
.	.	8E' 8A	.	.	.	.	.
=2	=2	=2	=2	=2	=2	=2	=2
!	!	!	!	!LO:TX:a:t=con sord quasi	!	!	!
4CC: 4AA-X: 4E-X: 4An:	.	4r	.	2r	.	1ryy	.
4r	.	8F'L 8B-X	.	.	.	.	.
.	.	8F'J 8B-	.	.	.	.	.
*	*	*	*	*tremolo	*	*	*
4CC: 4AA-: 4E-: 4A:	.	8r'	.	(64BLLLLtt	pp	.	.
.	.	.	.	64c#Xt	.	.	.
.	.	.	.	64B	.	.	.
.	.	.	.	64c#Xt	.	.	.
.	.	.	.	64B	.	.	.
.	.	.	.	64c#Xt	.	.	.
.	.	.	.	64B	.	.	.
.	.	.	.	64c#Xt	.	.	.
.	.	8E' 8A	.	64B	.	.	.
.	.	.	.	64c#Xt	.	.	.
.	.	.	.	64B	.	.	.
.	.	.	.	64c#Xt	.	.	.
.	.	.	.	64B	.	.	.
.	.	.	.	64c#Xt	.	.	.
.	.	.	.	64B	.	.	.
.	.	.	.	64c#Xt	.	.	.
4r	.	8r'	.	64Bt	.	.	.
.	.	.	.	64c#Xt	.	.	.
.	.	.	.	64B	.	.	.
.	.	.	.	64c#Xt	.	.	.
.	.	.	.	64B	.	.	.
.	.	.	.	64c#Xt	.	.	.
.	.	.	.	64B	.	.	.
.	.	.	.	64c#Xt	.	.	.
.	.	8E' 8A	.	64B	.	.	.
.	.	.	.	64c#Xt	.	.	.
.	.	.	.	64B	.	.	.
.	.	.	.	64c#Xt	.	.	.
.	.	.	.	64B	.	.	.
.	.	.	.	64c#Xt	.	.	.
.	.	.	.	64B	.	.	.
.	.	.	.	(64c#XtJJJJ)	.	.	.
=3	=3	=3	=3	=3	=3	=3	=3
4CC: 4AA-X: 4En: 4An:	.	4r	.	64BLLLL)	.	4ryy	.
.	.	.	.	64c#X	.	.	.
.	.	.	.	64B	.	.	.
.	.	.	.	64c#X	.	.	.
.	.	.	.	64B	.	.	.
.	.	.	.	64c#X	.	.	.
.	.	.	.	64B	.	.	.
.	.	.	.	64c#X	.	.	.
.	.	.	.	64B	.	.	.
.	.	.	.	64c#X	.	.	.
.	.	.	.	64B	.	.	.
.	.	.	.	64c#X	.	.	.
.	.	.	.	64B	.	.	.
.	.	.	.	64c#X	.	.	.
.	.	.	.	64B	.	.	.
.	.	.	.	64c#X	.	.	.
4r	.	8F'L 8B-X	.	64B	.	8ryy	.
.	.	.	.	64c#X	.	.	.
.	.	.	.	64B	.	.	.
.	.	.	.	64c#X	.	.	.
.	.	.	.	64B	.	.	.
.	.	.	.	64c#X	.	.	.
.	.	.	.	64B	.	.	.
.	.	.	.	64c#X	.	.	.
.	.	8F'J 8B-	.	64B	.	16ryy	4ryy
.	.	.	.	64c#X	.	.	.
.	.	.	.	64B	.	.	.
.	.	.	.	64c#X	.	.	.
.	.	.	.	64B	.	16ryy	.
.	.	.	.	64c#X	.	.	.
.	.	.	.	64B	.	.	.
.	.	.	.	64c#X	.	.	.
4CC: 4AA-: 4E: 4A:	.	8r'	.	64B	.	16ryy	.
.	.	.	.	64c#X	.	.	.
.	.	.	.	64B	.	.	.
.	.	.	.	64c#X	.	.	.
.	.	.	.	64B	.	16ryy	.
.	.	.	.	64c#X	.	.	.
.	.	.	.	64B	.	.	.
.	.	.	.	64c#X	.	.	.
.	.	8E' 8A	.	64B	.	16ryy	.
.	.	.	.	64c#X	.	.	.
.	.	.	.	64B	.	.	.
.	.	.	.	64c#X	.	.	.
.	.	.	.	64B	.	16ryy	.
.	.	.	.	64c#X	.	.	.
.	.	.	.	64B	.	.	.
.	.	.	.	64c#X	.	.	.
4r	.	8r'	.	64B	.	8ryy	.
.	.	.	.	64c#X	.	.	.
.	.	.	.	64B	.	.	.
.	.	.	.	64c#X	.	.	.
.	.	.	.	64B	.	.	.
.	.	.	.	64c#X	.	.	.
.	.	.	.	64B	.	.	.
.	.	.	.	64c#X	.	.	.
.	.	8E' 8A	.	64B	.	16ryy	.
.	.	.	.	64c#X	.	.	.
.	.	.	.	64B	.	.	.
.	.	.	.	64c#X	.	.	.
.	.	.	.	64B	.	16ryy	.
.	.	.	.	64c#X	.	.	.
.	.	.	.	64B	.	.	.
.	.	.	.	(64c#XJJJJ	.	.	.
!!linebreak:original
=4	=4	=4	=4	=4	=4	=4	=4
4CC: 4AA-X: 4E-X: 4An:	pp	4r	.	(64BLLLL)	.	16ryy	.
.	.	.	.	64c#X	.	.	.
.	.	.	.	64B	.	.	.
.	.	.	.	64c#X	.	.	.
.	.	.	.	64B	.	16ryy	.
.	.	.	.	64c#X	.	.	.
.	.	.	.	64B	.	.	.
.	.	.	.	64c#X	.	.	.
.	.	.	.	64B	.	8ryy	.
.	.	.	.	64c#X	.	.	.
.	.	.	.	64B	.	.	.
.	.	.	.	64c#X	.	.	.
.	.	.	.	64B	.	.	.
.	.	.	.	64c#X	.	.	.
.	.	.	.	64B	.	.	.
.	.	.	.	64c#X)JJJJ	.	.	.
4r	.	8F'L 8B-X	.	(64c#LLLL	.	16ryy	.
.	.	.	.	64d#X	.	.	.
.	.	.	.	64c#	.	.	.
.	.	.	.	64d#X	.	.	.
.	.	.	.	64c#	.	16ryy	.
.	.	.	.	64d#X	.	.	.
.	.	.	.	64c#	.	.	.
.	.	.	.	64d#X	.	.	.
.	.	8F'J 8B-	.	64c#	.	16ryy	.
.	.	.	.	64d#X	.	.	.
.	.	.	.	64c#	.	.	.
.	.	.	.	64d#X	.	.	.
.	.	.	.	64c#	.	16ryy	4ryy
.	.	.	.	64d#X	.	.	.
.	.	.	.	64c#	.	.	.
.	.	.	.	64d#X	.	.	.
4CC: 4AA-: 4E-: 4A:	.	8r'	.	64c#	.	16ryy	.
.	.	.	.	64d#X	.	.	.
.	.	.	.	64c#	.	.	.
.	.	.	.	64d#X	.	.	.
.	.	.	.	64c#	.	16ryy	.
.	.	.	.	64d#X	.	.	.
.	.	.	.	64c#	.	.	.
.	.	.	.	64d#X	.	.	.
.	.	8E' 8A	.	64c#	.	8ryy	4ryy
.	.	.	.	64d#X	.	.	.
.	.	.	.	64c#	.	.	.
.	.	.	.	64d#X	.	.	.
.	.	.	.	64c#	.	.	.
.	.	.	.	64d#X	.	.	.
.	.	.	.	64c#	.	.	.
.	.	.	.	64d#X)JJJJ	.	.	.
4r	.	8r'	.	(64eLLLL	.	16ryy	.
.	.	.	.	64f#X	.	.	.
.	.	.	.	64e	.	.	.
.	.	.	.	64f#X	.	.	.
.	.	.	.	64e	.	8ryy	.
.	.	.	.	64f#X	.	.	.
.	.	.	.	64e	.	.	.
.	.	.	.	64f#X	.	.	.
.	.	8E' 8A	.	64e	.	.	.
.	.	.	.	64f#X	.	.	.
.	.	.	.	64e	.	.	.
.	.	.	.	64f#X	.	.	.
.	.	.	.	64e	.	16ryy	.
.	.	.	.	64f#X	.	.	.
.	.	.	.	64e	.	.	.
.	.	.	.	64f#XJJJJ	.	.	.
!!LO:REH:t=5
=5	=5	=5	=5	=5	=5	=5	=5
4CC: 4AA-X: 4E-X: 4An:	.	4r	.	(64eLLLL)	.	8ryy	.
.	.	.	.	64f#X	.	.	.
.	.	.	.	64e	.	.	.
.	.	.	.	64f#X	.	.	.
.	.	.	.	64e	.	.	.
.	.	.	.	64f#X	.	.	.
.	.	.	.	64e	.	.	.
.	.	.	.	64f#X	.	.	.
.	.	.	.	64e	.	16ryy	4ryy
.	.	.	.	64f#X	.	.	.
.	.	.	.	64e	.	.	.
.	.	.	.	64f#X	.	.	.
.	.	.	.	64e	.	16ryy	.
.	.	.	.	64f#X	.	.	.
.	.	.	.	64e	.	.	.
.	.	.	.	64f#X	.	.	.
4r	.	8F'L 8B-X	.	64e	.	16ryy	.
.	.	.	.	64f#X	.	.	.
.	.	.	.	64e	.	.	.
.	.	.	.	64f#X	.	.	.
.	.	.	.	64e	.	16ryy	4ryy
.	.	.	.	64f#X	.	.	.
.	.	.	.	64e	.	.	.
.	.	.	.	64f#X	.	.	.
.	.	8F'J 8B-	.	64e	.	8ryy	.
.	.	.	.	64f#X	.	.	.
.	.	.	.	64e	.	.	.
.	.	.	.	64f#X	.	.	.
.	.	.	.	64e	.	.	.
.	.	.	.	64f#X	.	.	.
.	.	.	.	64e	.	.	.
.	.	.	.	64f#X)JJJJ	.	.	.
4CC: 4AA-: 4E-: 4A:	<	8r'	.	(64f#LLLL	<	8ryy	.
.	.	.	.	64g#X	.	.	.
.	.	.	.	64f#	.	.	.
.	.	.	.	64g#X	.	.	.
.	.	.	.	64f#	.	.	.
.	.	.	.	64g#X	.	.	.
.	.	.	.	64f#	.	.	.
.	.	.	.	64g#X	.	.	.
.	.	8E' 8A	<	64f#	.	16ryy	.
.	.	.	.	64g#X	.	.	.
.	.	.	.	64f#	.	.	.
.	.	.	.	64g#X	.	.	.
.	.	.	.	64f#	.	16ryy	.
.	.	.	.	64g#X	.	.	.
.	.	.	.	64f#	.	.	.
.	.	.	.	64g#X	.	.	.
4r	.	8r'	.	64f#	.	16ryy	.
.	.	.	.	64g#X	.	.	.
.	.	.	.	64f#	.	.	.
.	.	.	.	64g#X	.	.	.
.	.	.	.	64f#	.	16ryy	.
.	.	.	.	64g#X	.	.	.
.	.	.	.	64f#	.	.	.
.	.	.	.	64g#X	.	.	.
.	.	8E' 8A	.	64f#	.	16ryy	.
.	.	.	.	64g#X	.	.	.
.	.	.	.	64f#	.	.	.
.	.	.	.	64g#X	.	.	.
.	.	.	.	64f#	.	16ryy	.
.	.	.	.	64g#X	.	.	.
.	.	.	.	64f#	.	.	.
.	.	.	.	(64g#X)JJJJ	.	.	.
=6	=6	=6	=6	=6	=6	=6	=6
4CC: 4AA-X: 4E-X: 4An:	.	4r	.	(64f#XLLLL)	.	16ryy	.
.	.	.	.	64g#X	.	.	.
.	.	.	.	64f#X	.	.	.
.	.	.	.	64g#X	.	.	.
.	.	.	.	64f#X	.	16ryy	.
.	.	.	.	64g#X	.	.	.
.	.	.	.	64f#X	.	.	.
.	.	.	.	64g#X	.	.	.
.	.	.	.	64f#X	.	16ryy	.
.	.	.	.	64g#X	.	.	.
.	.	.	.	64f#X	.	.	.
.	.	.	.	64g#X	.	.	.
.	.	.	.	64f#X	.	16ryy	4ryy
.	.	.	.	64g#X	.	.	.
.	.	.	.	64f#X	.	.	.
.	.	.	.	64g#X)JJJJ	.	.	.
!	!	!	!	!	!LO:DY:t=poco %s	!	!
4r	[	8F'L 8B-X	[	(64b-XLLLL	mf [	16ryy	.
.	.	.	.	64ccn	.	.	.
.	.	.	.	64b-X	.	.	.
.	.	.	.	64ccn	.	.	.
.	.	.	.	64b-X	.	16ryy	.
.	.	.	.	64ccn	.	.	.
.	.	.	.	64b-X	.	.	.
.	.	.	.	64ccn	.	.	.
.	.	8F'J 8B-	.	64b-X	.	16ryy	.
.	.	.	.	64ccn	.	.	.
.	.	.	.	64b-X	.	.	.
.	.	.	.	64ccn	.	.	.
.	.	.	.	64b-X	.	16ryy	.
.	.	.	.	64ccn	.	.	.
.	.	.	.	64b-X	.	.	.
.	.	.	.	64ccn	.	.	.
!	!	!	!	!	!	!	!LO:DY:t=poco %s
4CC: 4GG: 4F#X:	mf	8r'	.	64b-X	.	8ryy	4ryy
.	.	.	.	64ccn	.	.	.
.	.	.	.	64b-X	.	.	.
.	.	.	.	64ccn	.	.	.
.	.	.	.	64b-X	.	.	.
.	.	.	.	64ccn	.	.	.
.	.	.	.	64b-X	.	.	.
.	.	.	.	64ccn	.	.	.
.	.	8E' 8A	mf	64b-X	.	16ryy	.
.	.	.	.	64ccn	.	.	.
.	.	.	.	64b-X	.	.	.
.	.	.	.	64ccn	.	.	.
.	.	.	.	64b-X	.	16ryy	.
.	.	.	.	64ccn	.	.	.
.	.	.	.	64b-X	.	.	.
.	.	.	.	64ccn	.	.	.
4r	.	8r'	.	64b-X	.	16ryy	.
.	.	.	.	64ccn	.	.	.
.	.	.	.	64b-X	.	.	.
.	.	.	.	64ccn	.	.	.
.	.	.	.	64b-X	.	16ryy	.
.	.	.	.	64ccn	.	.	.
.	.	.	.	64b-X	.	.	.
.	.	.	.	64ccn	.	.	.
.	.	8E' 8A	.	64b-X	.	16ryy	.
.	.	.	.	64ccn	.	.	.
.	.	.	.	64b-X	.	.	.
.	.	.	.	64ccn	.	.	.
.	.	.	.	64b-X	.	16ryy	.
.	.	.	.	64ccn	.	.	.
.	.	.	.	64b-X	.	.	.
.	.	.	.	(64ccn)JJJJ	.	.	.
!!linebreak:original
=7	=7	=7	=7	=7	=7	=7	=7
*	*	*	*	*Xtremolo	*	*	*
4CC: 4AA-X: 4E-X: 4An:	.	4r	.	4b-XT)	.	16ryy	4ryy
.	.	.	.	.	.	16ryy	.
.	.	.	.	.	.	8ryy	4ryy
4r	>	8F'L 8B-X	.	(4a-XTT	>	16ryy	.
.	.	.	.	.	.	16ryy	.
.	.	8F'J 8B-	>	.	.	16ryy	.
.	.	.	.	.	.	16ryy	4ryy
4CC: 4GG: 4F#X:	.	8r'	.	4gnt	.	8ryy	.
.	.	8E' 8A	]	.	.	16ryy	.
.	.	.	.	.	.	16ryy	.
4r	]	8r'	.	4fT)	]	16ryy	.
.	.	.	.	.	.	16ryy	4ryy
.	.	8E' 8A	.	.	.	8ryy	.
=8	=8	=8	=8	=8	=8	=8	=8
4CC: 4AA-X: 4E-X: 4An:	p	4r	.	(4dT	p	16ryy	.
.	.	.	.	.	.	16ryy	4ryy
.	.	.	.	.	.	16ryy	.
.	.	.	.	.	.	16ryy	.
4r	.	8F'L 8B-X	p	4cT	.	16ryy	.
.	.	.	.	.	.	16ryy	.
.	.	8F'J 8B-	.	.	.	16ryy	4ryy
.	.	.	.	.	.	16ryy	.
4CC: 4GG: 4F#X:	>	8r'	.	4B-XT	>	4ryy	4ryy
.	.	8E' 8A	.	.	.	.	.
.	.	.	.	.	.	8ryy	.
4r	]	8r'	.	4A-XT)	]	8ryy	.
.	.	8E' 8A	.	.	.	8ryy	.
=9	=9	=9	=9	=9	=9	=9	=9
*	*	*	*	*tremolo	*	*	*
4CC: 4AA-X: 4E-X: 4An:	pp	4r	.	(64d-XLLLL	pp	8ryy	.
.	.	.	.	64e	.	.	.
.	.	.	.	64d-X	.	.	.
.	.	.	.	64e	.	.	.
.	.	.	.	64d-X	.	.	.
.	.	.	.	64e	.	.	.
.	.	.	.	64d-X	.	.	.
.	.	.	.	.	.	8ryy	.
.	.	.	.	64e	.	.	.
.	.	.	.	64d-X	.	8ryy	.
.	.	.	.	64e	.	.	.
.	.	.	.	.	.	.	.
.	.	.	.	64d-X	.	.	.
.	.	.	.	64e	.	.	.
.	.	.	.	64d-X	.	.	.
.	.	.	.	64e	.	.	.
.	.	.	.	64d-X	.	.	.
.	.	.	.	64e	.	.	.
4r	.	8F'L 8B-X	pp	64d-X	.	8ryy	4ryy
.	.	.	.	64e	.	.	.
.	.	.	.	64d-X	.	.	.
.	.	.	.	64e	.	.	.
.	.	.	.	64d-X	.	.	.
.	.	.	.	64e	.	.	.
.	.	.	.	64d-X	.	.	.
.	.	.	.	64e	.	.	.
.	.	8F'J 8B-	.	64d-X	.	16ryy	.
.	.	.	.	64e	.	.	.
.	.	.	.	64d-X	.	.	.
.	.	.	.	64e	.	.	.
.	.	.	.	64d-X	.	16ryy	.
.	.	.	.	64e	.	.	.
.	.	.	.	64d-X	.	.	.
.	.	.	.	64e	.	.	.
4CC: 4GG: 4F#X:	.	8r'	.	64d-X	.	4ryy	4ryy
.	.	.	.	64e	.	.	.
.	.	.	.	64d-X	.	.	.
.	.	.	.	64e	.	.	.
.	.	.	.	64d-X	.	.	.
.	.	.	.	64e	.	.	.
.	.	.	.	64d-X	.	.	.
.	.	.	.	64e	.	.	.
.	.	8E' 8A	.	64d-X	.	.	.
.	.	.	.	64e	.	.	.
.	.	.	.	64d-X	.	.	.
.	.	.	.	64e	.	.	.
.	.	.	.	64d-X	.	.	.
.	.	.	.	64e	.	.	.
.	.	.	.	64d-X	.	.	.
.	.	.	.	64e	.	.	.
4r	.	8r'	.	64d-X	.	8ryy	4ryy
.	.	.	.	64e	.	.	.
.	.	.	.	64d-X	.	.	.
.	.	.	.	64e	.	.	.
.	.	.	.	64d-X	.	.	.
.	.	.	.	64e	.	.	.
.	.	.	.	64d-X	.	.	.
.	.	.	.	64e	.	.	.
.	.	8E' 8A	.	64d-X	.	8ryy	4ryy
.	.	.	.	64e	.	.	.
.	.	.	.	64d-X	.	.	.
.	.	.	.	64e	.	.	.
.	.	.	.	64d-X	.	.	.
.	.	.	.	64e	.	.	.
.	.	.	.	64d-X	.	.	.
.	.	.	.	(64e)JJJJ	.	.	4ryy
*	*	*	*	*Xtremolo	*	*	*
=||	=||	=||	=||	=||	=||	=||	=||
*-	*-	*-	*-	*-	*-	*-	*-
!!!system-decoration: [(s1,s2,s3,s4)]
!!!RDF**kern: > = above
!!!RDF**kern: < = below
!!!EED: Daniel Wright
!!!EEV: 2022/02/11
